icon-themes/sifr_svg/cmd/sc_dsbinsertcontent.svg

<svg viewBox="0 0 16 16" xmlns="http://www.w3.org/2000/svg"><path d="m1 1v4h7v-4zm0 5v6c0 .554.446 1 1 1h2.5625l-.2625.3c-.2.16943-.3.43469-.3.7v1h1c.26529 0 .53057-.1.7-.3l2-2 .3-.2625v-.875l-.3-.2625-2-2c-.16942-.2-.43469-.3-.7-.3h-1v1c0 .2653.1.53058.3.7l.2625.3h-1.5625v-5zm8 3v6h6v-6zm2 2h2v2h-2z" fill="#555753"/></svg>

<svg xmlns="http://www.w3.org/2000/svg" viewBox="0 0 16 16">
  <path
     style="fill:#555753"
     d="M 1 1 L 1 5 L 8 5 L 8 1 L 1 1 z M 1 6 L 1 12 C 1 12.554 1.446 13 2 13 L 4.5625 13 L 4.3 13.3 C 4.1 13.46943 4 13.73469 4 14 L 4 15 L 5 15 C 5.26529 15 5.53057 14.9 5.7 14.7 L 7.7 12.7 L 8 12.4375 L 8 11.5625 L 7.7 11.3 L 5.7 9.3 C 5.53058 9.1 5.26531 9 5 9 L 4 9 L 4 10 C 4 10.2653 4.1 10.53058 4.3 10.7 L 4.5625 11 L 3 11 L 3 6 L 1 6 z M 9 9 L 9 15 L 15 15 L 15 9 L 9 9 z M 11 11 L 13 11 L 13 13 L 11 13 L 11 11 z "
     />
</svg>
